X:78
T:Ss Moridodouno
M:3/8
L:1/8
R:Bourre
N:La Bourre 4th edition 1929, page 78
Z:Steve Mansfield www.lesession.co.uk April 2012
K:G
!p!(BB/) A/ B/ c/ | d/ e/ d d | (BB/) A/ B/ c/ |
B G2 :| g d c | BG2 | A/ B/ A D |
G/ A/ B G |  g d c | BG2 | A/ B/ A D | G3 |]

